X: 657
T: The Four Jacks
T: with ornamentation
S: Lee Cremo
R: Other
M: 2/4
L: 1/8
Z:<http://tunes.nhcountrydance.com>.
K: D
a>g |: fd cd | (3B/d/B/A [AF][AD] | f/2f/2f/2f/2 f^e | f3 a/g/ |\
fd cd | (3B/d/B/A [AF][AD] | g/g/g/g/ gf | g3 g/a/ |
g(3f/g/f/ ed | [ce][Be] [Ae]>g | fd cd | (3B/d/B/A Ff |\
e2 e^g/f/ | e2 e^g/f/ | e>e f^g |1 a2 a>a :|2 a2 |]
[| {cB}AB | [c2e2] {dc}[Be][ce] | f2 eA | d2 {ed}cd | e2 d2 |\
(c3 {dc}^B) | (c3 ^B) | B2 (B^A) | B2 {cB}AB |
[c2e2] {dc}[Be][ce] | f2 eA | d2 {ed}cd | e2 dB |\
A2 g2 | f2 (3efe | d2 d2 | d2 |]\
K: G
[| ef | g2 BA | G>A Bc | d2-d/e/ d/^c/ | d2 ef |\
g2 {ag}ef | g2 f/g/f/e/ | d4 | d2 ed |
c2 {dc}Bc | A2 dc | B2 {cB}AB | G2 (cB) |\
[Ae]>[Ae] [^ce][de] | [e2A2] [fA][gA] | ff/f/ f/f/f/f/ | fd ef |
g2 BA | G>A Bc | d2-d/ e/d/^c/ | d2 ef |\
g2 {ag}ef | g2 a2 | b2-b2 | b2 ef |
g2 {ag}fg | a2 ga | b>a (3g/a/g/e | d2 [^ce]d |\
e2 ee | [fd]>[fd] [fd][fd] | [gB]>[gB] [g/B/][g/B/][gB] | [g2B2] |]
